packages/kaspersky-hexa-ui-icons/src/iconsSVGs/16/ShareLinkSolid.svg

<svg width="16" height="16" viewBox="0 0 16 16" fill="none" xmlns="http://www.w3.org/2000/svg">
<path fill-rule="evenodd" clip-rule="evenodd" d="M11.6638 0.889404C10.375 0.889404 9.33032 1.93412 9.33032 3.22284C9.33032 3.42175 9.35521 3.61484 9.40204 3.79918L5.48193 6.20946C5.0676 5.83312 4.51734 5.60376 3.91351 5.60376C2.62479 5.60376 1.58008 6.64847 1.58008 7.93719C1.58008 9.22591 2.62479 10.2706 3.91351 10.2706C4.49334 10.2706 5.02377 10.0591 5.43188 9.7091L9.41362 12.1573C9.35932 12.3547 9.33032 12.5627 9.33032 12.7774C9.33032 14.0661 10.375 15.1108 11.6638 15.1108C12.9525 15.1108 13.9972 14.0661 13.9972 12.7774C13.9972 11.4887 12.9525 10.4439 11.6638 10.4439C11.0597 10.4439 10.5092 10.6735 10.0949 11.0501L6.14499 8.62149C6.21128 8.40509 6.24694 8.1753 6.24694 7.93719C6.24694 7.72226 6.21788 7.51412 6.16348 7.31648L10.0619 4.91956C10.4798 5.31428 11.0435 5.55627 11.6638 5.55627C12.9525 5.55627 13.9972 4.51155 13.9972 3.22284C13.9972 1.93412 12.9525 0.889404 11.6638 0.889404Z" fill="black"/>
</svg>

<svg xmlns="http://www.w3.org/2000/svg" width="16" height="16" fill="none" viewBox="0 0 16 16"><path fill="#000" fill-rule="evenodd" d="M11.6638.8893c-1.2888 0-2.3335 1.0447-2.3335 2.3334 0 .199.025.392.0717.5764l-3.92 2.4102a2.325 2.325 0 0 0-1.5685-.6057c-1.2887 0-2.3334 1.0447-2.3334 2.3335s1.0447 2.3334 2.3334 2.3334A2.324 2.324 0 0 0 5.432 9.709l3.9817 2.4481a2.34 2.34 0 0 0-.0833.6201c0 1.2888 1.0447 2.3335 2.3335 2.3335s2.3334-1.0447 2.3334-2.3335-1.0447-2.3334-2.3334-2.3334a2.325 2.325 0 0 0-1.5689.6061l-3.95-2.4285a2.33 2.33 0 0 0 .102-.6843c0-.215-.029-.4231-.0834-.6207l3.8984-2.397a2.325 2.325 0 0 0 1.6019.6367c1.2887 0 2.3334-1.0447 2.3334-2.3334S12.9525.8893 11.6638.8893"/></svg>
